!!!!SEGMENT: pl-wtm--r-1332_stefani-jozef--polonez.krn
!!!cenid: 18xx:1839
!!!COM: Stefani, Józef
!!!COM-rismID: pe30024097
!!!CDT: 1800/04/16-1876/03/19
!!!CNT: Polish
!!!OTL: Polonez
!!!PDT:
!!!AGN: Secular; Polonaise
!!!YEC: Copyright 2022 Narodowy Instytut Fryderyka Chopina (https://polishscores.org)
!!!YEM: License CC-BY-4.0 (https://creativecommons.org/licenses/by/4.0)
!!!SMS-siglum: PL-Wtm
!!!SMS-shelfmark: R 1332
!!!SMS-shelfwork: W
!!!SMS-variant:
!!!SMS-altvar:
!!!NIFC-rismSourceID: 1001119009
!!!NIFC-rismChildID: 1001119009
!!!NIFC-islandoraID: pl-wtm:25183
!!!URL-pdf-islandora: https://repozytorium.nifc.pl/islandora/object/pl-wtm%3A25183/datastream/PDF/view
!!!URL-scan: https://polish.musicsources.pl/pl/lokalizacje/galeria/rekopisy/6184 @EN{Scan on Polish Music Sources Website} @PL{Skany w portalu Dziedzictwo Muzyki Polskiej w otwartym dostępie}
!!!IIIF:
!!!ONB-nifc:
!!!OMD: Polonez
!!!AIN: 1 forte
!!!key:
**kern	**kern	**dynam
*part1	*part1	*
*staff2	*staff1	*
*Iforte	*Iforte	*
*I"Fortepian	*I"Fortepian	*
*clefF4	*clefG2	*
*k[f#]	*k[f#]	*
*G:	*G:	*
*M3/4	*M3/4	*
*>[A,B,A,B,C,B,E,F,E,F,G,F,A,B,C,B]	*>[A,B,A,B,C,B,E,F,E,F,G,F,A,B,C,B]	*>[A,B,A,B,C,B,E,F,E,F,G,F,A,B,C,B]
=1	=1	=1
*>A	*>A	*>A
8G\L	8g'/L	.
16G\L	(16g/L	.
16B\JJ	16b/JJ)	.
8d\L	8dd'\L	.
8B\	8b'\	.
8e\	8ee'\	.
8c#X\J	8cc#X'\J	.
=2	=2	=2
*^	*	*
8d\L	4rEEyy	8dd/L	.
8B\	.	8b/	.
8G\	4rCCyy	8g/	.
8E\J	.	8e/J	.
4D/	8D\L	8d/L	.
.	8A\J	8f#J 8d 8c/	.
*v	*v	*	*
=3	=3	=3
8GL 8GG\	8gL 8d 8B/	.
16D\L	16f#L 16d 16A/	.
16D\JJ	16f#JJ 16d 16A/	.
8GL 8GG\	8gL 8d 8B/	.
8D\	8f#J 8d 8A/	.
8G 8GG\	8gL 8d 8B/	.
8EJ 8EE\	8g#XJ 8e 8d 8B/	.
!!LO:LB:g=original
=4	=4	=4
8EL 8AA'/	8aL 8e 8c/	.
16EL 16EE/	16g#XL 16e 16B/	.
16EJJ 16EE/	16g#JJ 16e 16B/	.
8EL 8AA/	8aL 8e 8c/	.
8E 8EE/	8g# 8e 8B/	.
8E 8AA/	8a 8e 8c/	.
8C#XJ 8CC#X/	8gnJ 8e 8A/	.
=5	=5	=5
8DL 8DD/	8f#L 8d 8A/	.
8AJ 8F# 8D/	16dd/L	.
.	16dd/JJ	.
8AL 8F# 8D\	(16cc#X\LL	.
.	16dd\	.
8AJ 8F# 8D\	16ee\	.
.	16dd\JJ	.
8BL 8G 8D\	8gg\L)	.
8BJ 8G 8D\	8bb\J	.
=6	=6	=6
*tremolo	*	*
*2\right	*	*
8AL 8F# 8D\	(16aa\LL	.
.	16dd\)	.
8A 8F# 8D\	16dd'\	.
.	16dd'\JJ	.
8A 8F# 8D\	(16cc#X\LL	.
.	16dd\	.
8AJ 8F# 8D\	16ee\	.
.	16dd\JJ	.
*Xtremolo	*	*
8BL 8G 8D\	8gg\L)	.
8BJ 8G 8D\	8bb\J	.
!!LO:LB:g=original
=7	=7	=7
*tremolo	*	*
8AL 8F# 8D\	(16aa\LL	.
.	16dd\)	.
8A 8F# 8D\	16dd'\	.
.	16dd'\JJ	.
8A 8F# 8D\	(16cc#X\LL	.
.	16dd\	.
8AJ 8F# 8D\	16ee\	.
.	16dd\JJ)	.
*Xtremolo	*	*
8BL 8G 8D\	8b'/L	.
8BJ 8G 8D\	8g'/J	.
=8	=8	=8
*	*^	*
4D 4DD/	8ddL 8a 8f#/	4rFyy	.
.	8d/J	.	.
4C 4CC/	8eeL 8cc 8g/	4rFyy	.
.	8e/J	.	.
4D 4DD/	4ff# 4dd/	8cc\L	.
!LO:TX:a:t=[segno]:problem= znak segno na kresce taktowej	!	!LO:TX:a:t=[segno]:problem= znak segno na kresce taktowej	!
.	.	8a\J	.
*	*v	*v	*
=9||	=9||	=9||
*>B	*>B	*>B
!LO:TX:t=P:problem=mixed beam	!	!
.	(8qff#/	p
8GG/L	8.gg\L)	.
8BJ 8G 8D\	.	.
.	16ee\Jk	.
*tremolo	*	*
8BL 8G 8D\	8dd\L	.
8B 8G 8D\	8b\	.
8B 8G 8D\	8dd\	.
8BJ 8G 8D\	8b\J	.
=10	=10	=10
*^	*	*
4D/	8D\L	(16dd\LL	.
.	.	16cc\	.
.	8cJ 8A\	16b\	.
.	.	16cc\JJ)	.
*rep	*rep	*	*
4D/	8D\L	8a\L	.
.	8cJ 8A\	(16aaL 16ff#\	f
.	.	16ggJJ 16ee\	.
*Xrep	*Xrep	*	*
*rep	*rep	*	*
4D/	8D\L	16ff#LL 16dd\	.
.	.	16ee 16cc\	.
.	8cJ 8A\	16dd 16b\	.
.	.	16ccJJ 16a\)	.
*Xrep	*Xrep	*	*
*v	*v	*	*
!!LO:LB:g=original
=11	=11	=11
!LO:TX:t=P:problem=mixed beam	!	!
8GG/L	8bL 8g'\	p
8BJ 8G 8D\	(16dd\L	.
.	16ee\JJ)	.
*tremolo	*	*
8BL 8G 8D\	8dd\L	.
8B 8G 8D\	8b\	.
.	8qee/	.
8B 8G 8D\	8dd\	.
8BJ 8G 8D\	8b\J	.
*Xtremolo	*	*
=12	=12	=12
*^	*	*
4D/	8D\L	(16cc#X\LL	.
.	.	16dd\	.
.	8cJ 8A\	16ee\	.
.	.	16dd\JJ)	.
*rep	*rep	*	*
4D/	8D\L	8a/	f
.	8cJ 8A\	(16dd\LL	.
.	.	16ee\JJ	.
*Xrep	*Xrep	*	*
*rep	*rep	*	*
4D/	8D\L	16ff#\LL	.
.	.	16gg\	.
.	8cJ 8A\	16aa\	.
.	.	16bb\JJ)	.
*Xrep	*Xrep	*	*
*v	*v	*	*
=13	=13	=13
8E\L	8gg'\L	p
8BJ 8G\	(16ee\L	.
.	16ff#\JJ	.
*rep	*	*
8E\L	8gg\L)	.
8BJ 8G\	8ee'\	.
*Xrep	*	*
*rep	*	*
8E\L	8dd#X'\	.
8BJ 8G\	8ee'\J	.
*Xrep	*	*
!!LO:LB:g=original
=14	=14	=14
*^	*	*
4BB/	8BB\L	8dd#X'\L	.
.	8BJ 8F# 8D#X\	(16ddd#X\L	.
.	.	16eee\JJ	.
*rep	*rep	*	*
4BB/	8BB\L	8fff#\L)	.
.	8BJ 8F#X 8D#\	8ddd#'\J	.
*Xrep	*Xrep	*	*
*rep	*rep	*	*
4BB/	8BB\L	(16ccc\LL	.
.	.	16bb\	.
.	8BJ 8F#X 8D#\	16aa\	.
.	.	16ff#\JJ)	.
*Xrep	*Xrep	*	*
*v	*v	*	*
=15	=15	=15
8E\L	(8gg\L	.
8BJ 8G\	16ee\L	.
.	16ff#\JJ	.
*rep	*	*
8E\L	8gg\L)	.
8BJ 8G\	8ee'\	.
*Xrep	*	*
*rep	*	*
8E\L	8dd#X'\	.
8BJ 8G\	8ee'\J	.
*Xrep	*	*
=16	=16	=16
8BB\L	8dd#X'\L	.
8BJ 8F# 8D#X\	(16dd#\L	.
.	16ff#\JJ)	.
*rep	*	*
8BB\L	8b'/L	.
8BJ 8F# 8D#X\	(16cc/L	.
.	16b/JJ)	.
*Xrep	*	*
*rep	*	*
8BB\L	(16cc/LL	.
.	16b/	.
8BJ 8F# 8D#X\	16a/	.
.	16f#/JJ)	.
*Xrep	*	*
!!LO:PB:g=original
=17	=17	=17
!	!LO:TX:t=P:problem=mixed beam	!
8BL 8G 8E\	8e/L	.
8BJ 8G 8E\	(16ee\L	.
.	16ff#\JJ)	.
8BL 8G 8E\	(16gg\LL	<
.	16ee\	.
8BJ 8G 8E\	16dd#X\	.
.	16ee\JJ)	.
8BL 8E 8D\	16gg#X'\LL	.
.	(16ee\	.
8BJ 8E 8D\	16dd#\	.
.	16ee\JJ)	.
=18	=18	=18
8AL 8E 8C\	8aa'\L	.
8AJ 8E 8C\	(16ee\L	.
.	16gg#X\JJ)	.
8AL 8E 8C\	16aa'\LL	.
.	(16ee\	.
8AJ 8E 8C\	16dd#X\	.
.	16ee\JJ)	.
8GG#X/L	16bb'\LL	.
.	(16ee\	.
8BJ 8E 8D\	16dd#\	.
.	16ee\JJ)	[[
=19	=19	=19
*^	*	*
8AA\L	4rDDDyy	8ccc'\L	f
8AJ 8E 8C\	.	(16eee\L	.
.	.	16ddd#X\JJ)	.
8AA\L	4rDDDyy	(16eee\LL	.
.	.	16dddn\	.
8AJ 8E 8C\	.	16ccc\	.
.	.	16bb\JJ	.
4C#X/	8C#\L	16aa\LL	.
.	.	16gg\	.
.	8A#XJ 8G 8E\	16ff#\	.
.	.	16ee\JJ)	.
*v	*v	*	*
!!LO:LB:g=original
=20	=20	=20
8BL 8G\	16dd\LL	.
.	32r	.
.	(32eee\K	.
8cJ 8A 8D\	16ddd\)	.
.	16ff#|\JJ	.
8r	(4aa\	.
8c 8F# 8D\	.	.
8B 8G\	8gg\)	.
8r	8r;	.
=21:|!	=21:|!	=21:|!
*>C	*>C	*>C
!LO:SIC:v:s=8A 8F# 8D	!	!
8AL 8E 8C\	8ddL 8f# 8d/	.
16A\L	16a'/L	.
16A\JJ	16a'/JJ	.
16G#X\LL	(<16g#X/LL	.
16A\	(16a/	.
16B\	16b/)	.
16c#X\JJ	16cc#X/JJ	.
8d\L	8dd\L)	.
!LO:SIC:v:s=Gn	!	!
8G#J 8GG/	8eeJ 8b\	.
=22	=22	=22
8F#L 8FF#\	8ff#L 8a#X'\	.
8c#XJ 8A#X 8E\	(16cc#X\L	.
.	16a#\JJ)	.
8c#L 8A# 8F#\	8f#/L	.
8c#J 8A# 8F#\	8cc#/J	.
8BL 8F# 8BB\	8dd\L	.
8BJ 8F# 8D\	8b\J	.
!!LO:LB:g=original
=23	=23	=23
8A#XL 8F#\	(16gg\LL	.
.	16ff#\	.
8c#XJ 8A# 8F#\	16cc#X\	.
.	16a#X\JJ	.
8c#L 8A# 8F#\	8f#/L)	.
8c#J 8A# 8F#\	8cc#/J	.
.	(8qee/	.
8BL 8F# 8BB\	8dd\L)	.
8BJ 8F# 8D\	8b'\J	.
=24	=24	=24
8A#X 8F#\	8ff#\L	ff
16F#LL 16FF#/	16ff#L 16f#\	.
16F#JJ 16FF#/	16ff#JJ 16f#\	.
8F#L 8FF#/	8ff#L 8f#\	.
8F# 8FF#/	8ff#J 8f#\	.
8G 8GG/	8ggL 8g\	.
8G#XJ 8GG#X/	8gg#XJ 8g#X\	.
=25	=25	=25
8GL 8E\	(16bb\LL	mf
.	16aa\	.
8AA\J	16ggn\	.
.	16ee\JJ	.
*rep	*	*
8GL 8E\	8cc#X\L)	.
8AA\J	8a'\	.
*Xrep	*	*
*rep	*	*
8GL 8E\	8b'\	.
8AA\J	8cc#'\J	.
*Xrep	*	*
!!LO:LB:g=original
=26	=26	=26
8F#L 8D/	(16dd\LL	.
.	16ff#\)	.
8AA/J	16aa'\	.
.	16ff#'\JJ	.
*rep	*	*
8F#L 8D/	(16ddd\LL	.
.	16ccc#X\	.
8AA/J	16bb\	.
.	16aa\JJ	.
*Xrep	*	*
*rep	*	*
8F#L 8D/	16gg\LL	.
.	16ff#\	.
8AA/J	16ee\	.
.	16dd\JJ)	.
*Xrep	*	*
=27	=27	=27
8GL 8E/	(16gg#X\LL	.
.	16aa\	.
8AA/J	16ggn\	.
.	16ee\JJ	.
*rep	*	*
8GL 8E/	8cc#X\L)	.
8AA/J	(16a\L	.
.	16cc#\JJ	.
*Xrep	*	*
*rep	*	*
8GL 8E/	16b\LL	.
.	16dd\	.
8AA/J	16cc#\	.
.	16ee\JJ)	f
*Xrep	*	*
=28	=28	=28
*	*^	*
!	!LO:TX:t=P:problem=mixed beam	!	!
4F# 4D\	8dd\L	4ryy	.
.	8d/J	.	.
4C 4CC/	8eeL 8cc 8g/	4ryy	.
.	8e/J	.	.
!LO:TX:b:i:t=d'al segno al fine\ne poi Trio.	!	!	!
4D 4DD/	4ff# 4dd/	8cc\L	.
!LO:TX:a:t=[segno]:problem= znak segno na kresce taktowej	!	!LO:TX:a:t=[segno]:problem= znak segno na kresce taktowej	!
.	.	8a\J	.
*	*v	*v	*
!!LO:PB:g=original
=29||	=29||	=29||
!!!OMD: Trio.
*>E	*>E	*>E
*k[]	*k[]	*
*M3/4	*M3/4	*
8GL 8C\	8eL 8c'/	p
16GL 16C\	16eL 16c'/	.
16GJJ 16C\	16eJJ 16c'/	.
8AL 8C\	8fL 8c'/	.
8G 8C\	8e 8c'/	.
8F#X 8C\	8d#X 8c'/	.
8GJ 8C\	8eJ 8c'/	.
=30	=30	=30
!	!LO:TX:t=P:problem=mixed beam	!
8GG\L	8dnL 8B/	f
8GJ 8D\	16ffL 16dd\	.
.	16ffJJ 16dd\	.
*rep	*	*
8GG\L	(16ffLL 16dd\	.
.	16ee 16cc\)	.
8GJ 8D\	16dd 16b'\	.
.	16ccJJ 16a'\	.
*Xrep	*	*
*rep	*	*
8GG\L	(16bLL 16g/	.
.	16a 16f/)	.
8GJ 8D\	16g 16e'>/	.
.	16fJJ 16d'>/	.
*Xrep	*	*
=31	=31	=31
8GL 8C\	8eL 8c/	p
16GL 16C\	16eL 16c/	.
16GJJ 16C\	16eJJ 16c/	.
8AL 8C\	8fL 8c/	.
8G 8C\	8e 8c/	.
8F#X 8C\	8d#X 8c/	.
8GJ 8C\	8eJ 8c/	.
!!LO:LB:g=original
=32	=32	=32
8GG\L	8dL 8B/	f
!	!LO:TUP:b:problem=klamra łukowa	!
8GJ 8D\	24d/L	.
.	24f/	.
.	24b/JJ	.
*rep	*	*
8GG\L	8dd/L	.
!	!LO:TUP:b:problem=klamra łukowa	!
8GJ 8D\	24f/L	.
.	24b/	.
.	24dd/JJ	.
*Xrep	*	*
*rep	*	*
8GG\L	8ff\L	.
8GJ 8D\	(32b\LL	.
.	32dd\	.
.	32ff\	.
!LO:TX:a:t=[segno]:problem= znak segno na kresce taktowej	!LO:TX:a:t=[segno]:problem= znak segno na kresce taktowej	!
.	32bb\JJJ	.
*Xrep	*	*
=33||	=33||	=33||
*>F	*>F	*>F
*tremolo	*	*
8C\L	8cc'\L)	p
8eJ 8c 8G\	8ddd 8dd'\	.
8eL 8c 8G\	8cccJ 8cc'\	.
8e 8c 8G\	8r	.
8e 8c 8G\	4ee\	.
8eJ 8c 8G\	.	.
=34	=34	=34
!LO:TX:t=P:problem=mixed beam	!	!
8GG/L	(16gg\LL	.
.	16ff\	.
8fJ 8B 8G\	16ee\	.
.	16ff\JJ	.
*rep	*	*
!LO:TX:t=P:problem=mixed beam	!	!
8GG/L	8dd\L)	.
8fJ 8B 8G\	(16ddd\L	f
.	16ccc\JJ	.
*Xrep	*	*
*rep	*	*
!LO:TX:t=P:problem=mixed beam	!	!
8GG/L	16bb\LL	.
.	16aa\	.
8fJ 8B 8G\	16gg\	.
.	16ff\JJ	.
*Xrep	*	*
!!LO:LB:g=original
=35	=35	=35
!LO:TX:t=P:problem=mixed beam	!LO:TX:a:t=P:problem=brak zakończenia łuku	!
8GG/L	8ggL 8g'\)	.
8fJ 8B 8G\	8aaa 8aa'\	.
8fL 8B 8G\	8gggJ 8gg'\	.
8f 8B 8G\	8r	.
8f 8B 8G\	4dd\	.
8fJ 8B 8G\	.	.
=36	=36	=36
8C\L	(16dd#X\LL	.
.	16ee\	.
8eJ 8c 8G\	16ff\	.
.	16ee\JJ	.
*rep	*	*
8C\L	4cc\)	.
8eJ 8c 8G\	.	.
*Xrep	*	*
*rep	*	*
8C\L	8r	.
8eJ 8c 8G\	[8cc\	.
*Xrep	*	*
=37	=37	=37
8C\L	8cc\L]	.
8eJ 8c 8G\	8ddd 8dd'\	.
8eL 8c 8G\	8cccJ 8cc'\	.
8e 8c 8G\	8r	.
8e 8c 8G\	4bb\	.
8eJ 8c 8G\	.	.
*Xtremolo	*	*
!!LO:LB:g=original
=38	=38	=38
*^	*	*
4D/	8D\L	(16bb\LL	.
.	.	16aa\	.
.	8dJ 8A\	16gg#X\	.
.	.	16aa\JJ)	.
*rep	*rep	*	*
4D/	8D\L	4.ff\	.
.	8dJ 8A\	.	.
*Xrep	*Xrep	*	*
*rep	*rep	*	*
4D/	8D\L	.	.
.	8dJ 8A\	8ee\	.
*Xrep	*Xrep	*	*
*v	*v	*	*
=39	=39	=39
8G\L	(16dd\LL	.
.	16b\	.
8fJ 8B\	16dd\	.
.	16ff\JJ	.
*rep	*	*
8G\L	8aa\L)	.
8fJ 8B\	8gg'\J	.
*Xrep	*	*
*rep	*	*
8G\L	(16ff#X\LL	.
.	16gg\	.
8fJ 8B\	16ffn\	.
.	16dd\JJ)	.
*Xrep	*	*
=40	=40	=40
8eL 8c\	8cc'/L	.
8G\J	(16eeL 16g/	.
.	16ddJJ 16f/)	.
8r	(4dd 4f/	.
8BL 8G\	.	.
8c\J	8cc 8e/)	.
!	!LO:TX:b:i:t=fine	!
8r	8r;	.
!!LO:LB:g=original
=41:|!	=41:|!	=41:|!
*>G	*>G	*>G
!	!	!LO:DY:rj
8G#X\L	8.eeeL 8.ee\	f
8eJ 8d 8B\	.	.
.	16fffK 16ff\	.
8E\L	8eee 8ee\	.
8eJ 8d 8B\	8fff 8ff\	.
8G#\L	8eee 8ee\	.
8eJ 8d 8B\	8dddJ 8dd\	.
=42	=42	=42
8A\L	(16dd\LL	.
.	16cc\	.
8eJ 8c\	16b\	.
.	16cc\JJ)	.
!LO:TX:t=P:problem=mixed beam	!	!
8AA/L	4a/	.
8eJ 8c\	.	.
8A\L	(16a/LL	.
.	16b/	.
8eJ 8c\	16cc/	.
.	16a/JJ)	.
=43	=43	=43
8F#X\L	8.dddL 8.dd\	.
8dJ 8c 8A\	.	.
.	16eeeK 16ee\	.
8D\L	8ddd 8dd\	.
8dJ 8c 8A\	8eee 8ee\	.
8F#\L	8ddd 8dd\	.
8dJ 8c 8A\	8cccJ 8cc\	.
!!LO:PB:g=original
=44	=44	=44
!LO:TX:t=P:problem=mixed beam	!	!
8GG/L	(16cc/LL	.
.	16b/	.
8dJ 8B 8G\	16a/	.
.	16b/JJ)	.
8dL 8B 8G\	8g/L	.
8dJ 8B 8G\	(16g/L	.
.	16a/JJ)	.
8dL 8G 8F\	(16b\LL	.
.	16cc\	.
8dJ 8G 8F\	16dd\	.
.	16b\JJ)	.
=45	=45	=45
*^	*	*
4E/	8E\L	(16cc\LL	.
.	.	16b\	.
.	8cJ 8G\	16cc\	.
.	.	16ee\JJ	.
*rep	*rep	*	*
4E/	8E\L	4gg\)	.
.	8cJ 8G\	.	.
*Xrep	*Xrep	*	*
*rep	*rep	*	*
4E/	8E\L	4ccT\	.
.	8cJ 8G\	.	.
*Xrep	*Xrep	*	*
=46	=46	=46	=46
4F/	8F\L	(16dd\LL	.
.	.	16cc#X\	.
.	8dJ 8A\	16dd\	.
.	.	16ff\JJ	.
*rep	*rep	*	*
4F/	8F\L	4aa\)	.
.	8dJ 8A\	.	.
*Xrep	*Xrep	*	*
*rep	*rep	*	*
4F/	8F\L	4ddT\	.
.	8dJ 8A\	.	.
*Xrep	*Xrep	*	*
*v	*v	*	*
!!LO:LB:g=original
=47	=47	=47
8EL 8EE/	8eeL 8g#X\	.
16EL 16EE/	16eeL 16g# 16e\	.
16EJJ 16EE/	16eeJJ 16g# 16e\	.
8EL 8EE/	8eeL 8g# 8e\	.
8EJ 8EE/	8eeJ 8g# 8e\	.
8DL 8DD/	8ffL 8a 8f\	.
8DJ 8DD/	8ffJ 8a 8f\	.
=48	=48	=48
4E 4EE/	8r	.
.	8ee 8g#X 8e\	.
4D 4DD/	8r	.
.	8ff 8a 8f\	.
4G 4GG/	8r	.
!LO:TX:a:t=[segno]:problem= znak segno na kresce taktowej	!LO:TX:a:t=[segno]:problem= znak segno na kresce taktowej	!
!	!LO:TX:b:i:t=d'al segno\nal fine et\nda capo Polonez	!
.	8ggn 8b 8gn\	.
==	==	==
*-	*-	*-
!!!system-decoration: {(s1,s2)}
!!!RDF**kern: > = above
!!!RDF**kern: < = below
!!!RDF**kern: | = vertical stroke
!!!ENC: Marta Lawrence
!!!END: 2021-05-04
!!!ENC: Marcin Jachim
!!!END: 2021-04-09
